dist/svgs/devui-icons/op/add-file.svg

<svg xmlns="http://www.w3.org/2000/svg" viewBox="0 0 16 16"><path d="M7 13v2H2V5l4-4h8v6h-2V3H7v3H4v7h3zm4-2V8h2v3h3v2h-3v3h-2v-3H8v-2h3z"/></svg>

<?xml version="1.0" encoding="UTF-8"?>
<svg width="16px" height="16px" viewBox="0 0 16 16" version="1.1" xmlns="http://www.w3.org/2000/svg" xmlns:xlink="http://www.w3.org/1999/xlink">
    <title>操作/添加文件</title>
    <desc>Created with Sketch.</desc>
    <g id="操作/添加文件" stroke="none" stroke-width="1" fill="none" fill-rule="evenodd">
        <g>
            <path d="M7,13 L7,15 L2,15 L2,5 L6,1 L14,1 L14,7 L12,7 L12,3 L7,3 L7,6 L4,6 L4,13 L7,13 Z M11,11 L11,8 L13,8 L13,11 L16,11 L16,13 L13,13 L13,16 L11,16 L11,13 L8,13 L8,11 L11,11 Z" id="形状" fill="#293040" fill-rule="nonzero"></path>
        </g>
    </g>
</svg>
